assets/dialog/ic_song_info.svg

<svg height="16" viewBox="0 0 16 16" width="16" xmlns="http://www.w3.org/2000/svg"><g fill="none" fill-rule="evenodd"><path d="m0 0h16v16h-16z" fill="#fff" fill-opacity=".01" fill-rule="nonzero"/><path d="m8 14.6666667c1.84093333 0 3.5076-.7462 4.7140333-1.9526334 1.2064334-1.2064333 1.9526334-2.87309997 1.9526334-4.7140333s-.7462-3.5076-1.9526334-4.71404667c-1.2064333-1.20642666-2.87309997-1.95262-4.7140333-1.95262s-3.5076.74619334-4.71404667 1.95262c-1.20642666 1.20644667-1.95262 2.87311334-1.95262 4.71404667s.74619334 3.5076 1.95262 4.7140333c1.20644667 1.2064334 2.87311334 1.9526334 4.71404667 1.9526334z" stroke="#666" stroke-linejoin="round"/><path d="m8 3.66666667c.46023333 0 .83333333.3731.83333333.83333333s-.3731.83333333-.83333333.83333333-.83333333-.3731-.83333333-.83333333.3731-.83333333.83333333-.83333333z" fill="#666"/><g stroke="#666" stroke-linecap="round" stroke-linejoin="round"><path d="m8.16666667 11.3333333v-4.66666663h-.33333334-.33333333"/><path d="m7 11.333333h2.333333"/></g></g></svg>

<?xml version="1.0" encoding="UTF-8"?>
<svg width="16px" height="16px" viewBox="0 0 16 16" version="1.1" xmlns="http://www.w3.org/2000/svg" xmlns:xlink="http://www.w3.org/1999/xlink">
    <title>编组</title>
    <g id="页面-1" stroke="none" stroke-width="1" fill="none" fill-rule="evenodd">
        <g id="歌库-歌曲更多操作" transform="translate(-15.000000, -695.000000)">
            <g id="编组-10" transform="translate(0.000000, 532.000000)">
                <g id="编组-7" transform="translate(15.000000, 161.000000)">
                    <g id="编组" transform="translate(0.000000, 2.000000)">
                        <rect id="矩形" fill-opacity="0.01" fill="#FFFFFF" fill-rule="nonzero" x="0" y="0" width="16" height="16"></rect>
                        <path d="M8,14.6666667 C9.84093333,14.6666667 11.5076,13.9204667 12.7140333,12.7140333 C13.9204667,11.5076 14.6666667,9.84093333 14.6666667,8 C14.6666667,6.15906667 13.9204667,4.4924 12.7140333,3.28595333 C11.5076,2.07952667 9.84093333,1.33333333 8,1.33333333 C6.15906667,1.33333333 4.4924,2.07952667 3.28595333,3.28595333 C2.07952667,4.4924 1.33333333,6.15906667 1.33333333,8 C1.33333333,9.84093333 2.07952667,11.5076 3.28595333,12.7140333 C4.4924,13.9204667 6.15906667,14.6666667 8,14.6666667 Z" id="路径" stroke="#666666" stroke-linejoin="round"></path>
                        <path d="M8,3.66666667 C8.46023333,3.66666667 8.83333333,4.03976667 8.83333333,4.5 C8.83333333,4.96023333 8.46023333,5.33333333 8,5.33333333 C7.53976667,5.33333333 7.16666667,4.96023333 7.16666667,4.5 C7.16666667,4.03976667 7.53976667,3.66666667 8,3.66666667 Z" id="路径" fill="#666666"></path>
                        <polyline id="路径" stroke="#666666" stroke-linecap="round" stroke-linejoin="round" points="8.16666667 11.3333333 8.16666667 6.66666667 7.83333333 6.66666667 7.5 6.66666667"></polyline>
                        <line x1="7" y1="11.3333333" x2="9.33333333" y2="11.3333333" id="路径" stroke="#666666" stroke-linecap="round" stroke-linejoin="round"></line>
                    </g>
                </g>
            </g>
        </g>
    </g>
</svg>
